X: 1
T: Nail That Catfish To The Tree
C: Steve Rosen
S: Can't remember
M: 4/4
L: 1/8
K: G
z | DBAB c/B/A B2 | A/B/A/G/ F/G/A/B/ AFED | 
DBAB c/B/A B2 | A/B/A/G/ F/D/E/F/ G3 :|
D/ | C2 E2 c3 B | A/B/A/G/ F/G/A/B/ AFED | 
C2 E2 c3 B | A/B/A/G/ F/D/E/F/ G3 D |
C2 E2 c3 B | A/B/A/G/ F/G/A/B/ AFED | 
C2 E2 c3 B/c/ | dcBA G3 |]
